src/assets/images/close-icon.svg

<svg fill="none" height="14" viewBox="0 0 14 14" width="14" xmlns="http://www.w3.org/2000/svg"><path d="m6.99999 5.58672 4.95001-4.950001 1.414 1.414001-4.95001 4.95 4.95001 4.94998-1.414 1.414-4.95001-4.94998-4.95 4.94998-1.414004-1.414 4.950004-4.94998-4.950004-4.95 1.414004-1.414001z" fill="#fff"/></svg>

<svg width="14" height="14" viewBox="0 0 14 14" fill="none" xmlns="http://www.w3.org/2000/svg">
<path d="M6.99999 5.58672L11.95 0.636719L13.364 2.05072L8.41399 7.00072L13.364 11.9507L11.95 13.3647L6.99999 8.41472L2.04999 13.3647L0.635986 11.9507L5.58599 7.00072L0.635986 2.05072L2.04999 0.636719L6.99999 5.58672Z" fill="white"/>
</svg>
